X: 7
T:The Slaney Bog
R:Reel
C:Ed Reavy
S:The Collected Compositions of Ed Reavy
M:2/2
L:1/8
Z:Joe Reavy
N:The Slaney Bog. This tune became an
N:instant favorite with "the
N:New York fellows" back in the forties.
K:D
[F3A3] G FGAB | =cAFA G2 FG | (3AB=c AG FGAg | fdec dfec |
AFAF FGAB | =cAFA G2FG | (3AB=c AF FGAg | fdec dde | f2 gf gfed |
cAAB cdeg | fdfa g2 fg | (3agf gfe fddf | (3agf (3gfe fdec |
dfed dAGE | Dddc defg |1 (3agf gfe dfec |2 (3agf gfe d2 |]

composer: Ed Reavy
